X:408
T: Wuzhuang baojiaxiang
N: C2026
O: China,Jiangsu Xinghua
S: III, 463]
R: Xiaodiao, Shichao diao]
M: 2/4
L: 1/16
K: A
F2E2F2A2 | B2c2B2A2 | F2E2F2A2 | B8 |
B2B2A2B2 | c2e2B2A2 | F2EEF2A2 | B2c2B2A2 | F2EFA2C2 | E6
A2 | F2EFA2C2 | E8

@@@ Tune index: 6963
